assets/svgs/travel-color/TravelColor14.svg

<svg xmlns="http://www.w3.org/2000/svg" data-name="Layer 1" viewBox="0 0 128 128"><path fill="#021768" d="M35 51.666a1.25 1.25 0 00-1.25-1.25h-6.98a1.25 1.25 0 000 2.5h6.98a1.25 1.25 0 001.25-1.25zM101.308 50.416h-6.98a1.25 1.25 0 000 2.5h6.98a1.25 1.25 0 000-2.5zM28.48 95.126a7.77 7.77 0 1015.54 0v-4.759H28.48zM84.056 95.126a7.77 7.77 0 1015.54 0v-4.759h-15.54z"/><path fill="#0053fb" d="M45.6 32.57h36.875a11.853 11.853 0 0111.853 11.853V57.7h-60.58V44.423A11.853 11.853 0 0145.6 32.57z"/><path fill="#ffaf03" d="M36.122 57.7h55.832a16.334 16.334 0 0116.334 16.334v11.4a4.929 4.929 0 01-4.929 4.929H24.718a4.93 4.93 0 01-4.93-4.93v-11.4A16.334 16.334 0 0136.122 57.7z"/><circle cx="40.289" cy="77.83" r="6.541" fill="#fff"/><circle cx="87.787" cy="77.83" r="6.541" fill="#fff"/><path fill="#ffaf03" d="M58.56 25.1h10.956a3.522 3.522 0 013.522 3.522v3.948h-18v-3.944A3.522 3.522 0 0158.56 25.1z"/></svg>

<svg id="Layer_1" data-name="Layer 1" xmlns="http://www.w3.org/2000/svg" viewBox="0 0 128 128"><title>TAXI</title><path d="M35,51.666a1.25,1.25,0,0,0-1.25-1.25h-6.98a1.25,1.25,0,0,0,0,2.5h6.98A1.25,1.25,0,0,0,35,51.666Z" style="fill:#021768"/><path d="M101.308,50.416h-6.98a1.25,1.25,0,0,0,0,2.5h6.98a1.25,1.25,0,0,0,0-2.5Z" style="fill:#021768"/><path d="M28.48,95.126a7.77,7.77,0,1,0,15.54,0V90.367H28.48Z" style="fill:#021768"/><path d="M84.056,95.126a7.77,7.77,0,1,0,15.54,0V90.367H84.056Z" style="fill:#021768"/><path d="M45.6,32.57H82.475A11.853,11.853,0,0,1,94.328,44.423V57.7a0,0,0,0,1,0,0H33.748a0,0,0,0,1,0,0V44.423A11.853,11.853,0,0,1,45.6,32.57Z" style="fill:#0053fb"/><path d="M36.122,57.7H91.954a16.334,16.334,0,0,1,16.334,16.334v11.4a4.929,4.929,0,0,1-4.929,4.929H24.718a4.93,4.93,0,0,1-4.93-4.93v-11.4A16.334,16.334,0,0,1,36.122,57.7Z" style="fill:#ffaf03"/><circle cx="40.289" cy="77.83" r="6.541" style="fill:#fff"/><circle cx="87.787" cy="77.83" r="6.541" style="fill:#fff"/><path d="M58.56,25.1H69.516a3.522,3.522,0,0,1,3.522,3.522V32.57a0,0,0,0,1,0,0h-18a0,0,0,0,1,0,0V28.626A3.522,3.522,0,0,1,58.56,25.1Z" style="fill:#ffaf03"/></svg>
